X: 15744
T: Gone For His Tea
R: reel
M: 4/4
K: Dmajor
E|E2FE DEFG|AFBF AFDF|E2FE DEFG|AFDF E3E|
EDFE D2FG|AdBd AFDF|E2FE DEFG|AFDF E3d||
d2ed cA~A2|BAGB A2Bc|dfec dABc|dABG FDFA|
d2ed cA~A2|BAGB A3F|FGFE DEFG|AFDF E3||

